images/header-bg-4.svg

<svg width="105" height="105" viewBox="0 0 105 105" fill="none" xmlns="http://www.w3.org/2000/svg">
<path d="M69.6802 61.5267L83.8688 72.965C87.1909 67.8881 89.1156 62.2145 89.7285 56.4949C82.7244 54.8464 75.2331 56.6105 69.6802 61.5267Z" fill="#151515"/>
<path d="M39.96 37.5675C43.586 31.0978 43.7203 23.4028 40.623 16.908C35.1638 18.7207 30.0278 21.8054 25.7714 26.1292L39.96 37.5675Z" fill="#151515"/>
<path d="M63.7827 56.7724C70.8126 49.9642 80.5448 47.2129 89.757 48.8111C88.9222 40.2867 85.2164 32.097 78.8037 25.7714L57.7394 51.9006L63.7827 56.7724Z" fill="#151515"/>
<path d="M45.8572 42.3216L51.9005 47.1934L72.9648 21.0642C65.4224 16.1399 56.6037 14.2328 48.1255 15.2494C51.6421 23.9127 51.0187 34.007 45.8572 42.3216Z" fill="#151515"/>
<path d="M59.0755 62.6114L53.0322 57.7395L31.9679 83.8687C39.5103 88.7931 48.3289 90.7002 56.8072 89.6836C53.2906 81.0203 53.914 70.9259 59.0755 62.6114Z" fill="#151515"/>
<path d="M15.2045 48.4383C22.1795 50.0633 29.7235 48.2935 35.2528 43.4065L21.0642 31.9682C17.7421 37.0451 15.8175 42.7187 15.2045 48.4383Z" fill="#151515"/>
<path d="M64.973 67.3657C61.347 73.8354 61.2128 81.5304 64.31 88.0252C69.7692 86.2125 74.9053 83.1278 79.1616 78.804L64.973 67.3657Z" fill="#151515"/>
<path d="M41.15 48.1605C34.1201 54.9688 24.3879 57.7201 15.1757 56.1219C16.0105 64.6463 19.7163 72.8359 26.129 79.1616L47.1933 53.0324L41.15 48.1605Z" fill="#151515"/>
</svg>

<svg width="105" height="105" fill="none" xmlns="http://www.w3.org/2000/svg"><path d="M69.68 61.527l14.19 11.438a37.316 37.316 0 005.86-16.47c-7.005-1.649-14.496.116-20.049 5.032zM39.96 37.568c3.626-6.47 3.76-14.165.663-20.66a37.317 37.317 0 00-14.852 9.221L39.96 37.568zm23.823 19.204c7.03-6.808 16.762-9.56 25.974-7.96-.835-8.525-4.54-16.715-10.953-23.04L57.739 51.9l6.044 4.871zm-17.926-14.45l6.044 4.871 21.064-26.129a37.288 37.288 0 00-24.84-5.815c3.517 8.664 2.894 18.758-2.268 27.073zm13.218 20.289l-6.043-4.871-21.064 26.129a37.287 37.287 0 0024.84 5.815c-3.517-8.664-2.894-18.758 2.267-27.073zM15.204 48.438c6.976 1.625 14.52-.145 20.049-5.032L21.064 31.968a37.317 37.317 0 00-5.86 16.47zm49.769 18.928c-3.626 6.47-3.76 14.164-.663 20.66a37.317 37.317 0 0014.852-9.222L64.973 67.366zM41.15 48.16c-7.03 6.809-16.762 9.56-25.974 7.962.835 8.524 4.54 16.714 10.953 23.04l21.064-26.13-6.043-4.871z" fill="#151515"/></svg>
